X:1
T: The Drover Lads
C:
R:Jig
Q:180
K:G
M:6/8
L:1/16
B2|G2B2d2 g4B2|a2g2f2 g4e2|d2B2B2 B4e2|d2B2B2 B4A2|G2B2d2 g4d2|a2g2f2 g4e2|d2B2A2 A4e2|d2B2A2 A4B2|
G2B2G2 d2B2d2|e2g2e2 d2B2G2|d2B2B2 B4e2|d2B2B2 B4A2|G2B2G2 d2B2d2|e2g2e2 d2B2G2|d2B2A2 A4e2|d2B2A2 A4B2|
G2B2B2 g2B2B2|a2B2B2 g2B2e2|d2B2B2 B4e2|d2B2B2 B4A2|G2B2B2 g2B2B2|a2B2B2 g2B2e2|d2B2A2 A4e2|d2B2A2 A4g2|
a2g2f2 g2f2e2|f2e2d2 e2f2g2|d2B2B2 B4e2|d2B2B2 B4g2|a2g2f2 g2f2e2|f2e2d2 e2f2g2|d2c2A2 A4e2d2|B2A2 A4||
